X:1
T: Father's Joy
C:Bruce Shawyer
R:Reel
Q:232
K:A
M:4/4
L:1/16
|:E4|"A"A4E2A2 c2A2B2c2|"E"B4G2B2E4E2G2|B4G2B2 d2B2c2d2|"A"c4A2c2A4A2c2|
"D"d4A2d2 f2d2e2f2|"A"e4c2e2c4A2c2|"D"d2c2B2A2 "E7"G2A2B2d2|"A"A4A4A4:|
|:e4|"A"a4e2a2 c'2a2e2c2|"D"f4d2f2A4A2d2|"A"e4c2e2 A2e2c2A2|"E"B4G2B2E4e2g2|
"A"a4e2a2 c'2a2e2c2|"D"f4d2f2 "Bm"d4B4|"A"e2d2c2e2 "E7"d2c2B2e2|"A"c4A4A4:|
